X:0
T: James'
M: 6/8
L: 1/8
K: Emin
| BGE FDB, | CDE EFG |  BGE FDB | cDE EFG | E3 EDB, | CEG DFA | E3 EDB | cEG DFA |
